X: 1041
T: soldier Ladie
P: Longways for as many as will
R: jig
B: "Caledonian Country Dances" printed by John Walsh for John Johnson, London
S: http://imslp.org/wiki/Caledonian_Country_Dances_with_a_Thorough_Bass_(Various)
Z: 2013 John Chambers <jc:trillian.mit.edu>
N: Should the title be "Soldier Laddie"?
M: 6/8
L: 1/16
K: G
% - - - - - - - - - - - - - - - - - - - - - - - - -
V: 1
gd |\
B3AG2 G2D2E2 | A3BA2 A2B2d2 | efg2G2 G2D2E2 | G3AG2 B4G2 |\
c2dcBA B2cBAG | A3BA2 A2B2d2 | efg2G2 G2D2E2 | G3AG2 G4 :|
|:ef |\
g3ag2 g2d2B2 | a3ba2 a4g2 | efg2g2 g2d2B2 | g2agfe g2d2B2 |\
cBcdef g3fg2 | a2A2A2 A2B2d2 | efg2G2 G2D2E2 | G3AG2 G4 :|
% - - - - - - - - - - - - - - - - - - - - - - - - -
V: 2 clef=bass middle=d
z2 |\
g6 G6 | f6 d6 | c4B2 B4A2 | G6 g6 |\
a2f2d2 g2e2c2 | f6 d6 | c4B2 B4A2 | G6 G4 :|
|: z2 |\
G4A2 B4g2 | f4e2 f4g2 | c4B2 B4g2 | g2c2d2 G4g2 |\
a4g2 b2a2g2 | f6 d6 | c4B2 B4A2 | G6 G4 :|
% - - - - - - - - - - - - - - - - - - - - - - - - -
%%begintext align
The 1st Man heys with the 3d Cu. his Partner and the same time heys with the 2d Cu. .|
then the 1st Man heys with the 2d Cu 1st Wo. at the same time heys with the 3d C4. :|
1st Cu leads thro' the 2d and 3d We. and turn in the 2d Cu. Place .|
1st Cu leads thro' the 2d and 3d Men and turns at top. the 1st Cu. Back to Back and caast off and turn .|
the 2d Cu. does the same :|
1st Man leads the 2d Wo. off & turns her 1st Wo. leads the 2d Man off and turns him, 1st Man cast off at the same time.
%%endtext
